N0000 (Filename: Frontplatte_Rueck_4mm.tap)
N0010 (Post processor: Mach3.scpost)
N0020 (Date:29.12.2012 Time:17:05:12)
N0030 G21 (Units: Metric)
N0040 G40 G90 G91.1
N0050 F1
N0060 (Part: Frontplatte_Rueck)
N0070 (Operation: Inside Offset, Taster, T50: Mill/router, 4 mm diameter, 2 mm Deep)
N0080 (Zweischneider)
N0090 S5000 (Mill/router, 4 mm diameter)
N0100 T50 M06  G43 H50
N0110 G00 Z11.0000
N0120 M07 (Mist coolant on)
N0130 S5000 M03
N0140 X-17.5000 Y53.5347
N0150 Z0.5000
N0160 G01 Z-2.000 F30
N0170 G03 X-17.5000 Y56.2500 Z-2.0000 I-1.3576 J1.3576 F60.0
N0180 X-17.5000 Y56.2500 I0.0000 J-3.8500
N0190 X-17.5000 Y53.5347 I1.3576 J-1.3576
N0200 (Operation: Inside Offset, Kontakt_Absatz, T50: Mill/router, 4 mm diameter, 0.6 mm Deep)
N0210 (Zweischneider)
N0220 G00 Z11.0000
N0230 X-17.6300 Y30.6647
N0240 Z0.5000
N0250 G01 Z-0.600 F30
N0260 G03 X-17.6300 Y33.3800 Z-0.6000 I-1.3576 J1.3576 F60.0
N0270 X-17.6300 Y33.3800 I0.0000 J-5.5800
N0280 X-17.6300 Y30.6647 I1.3576 J-1.3576
N0290 (Operation: Inside Offset, Kontakt_durch, T50: Mill/router, 4 mm diameter, 2 mm Deep)
N0300 (Zweischneider)
N0310 G00 Z11.0000
N0320 Y30.1847
N0330 Z0.5000
N0340 G01 Z-2.000 F30
N0350 G03 X-17.6300 Y32.9000 Z-2.0000 I-1.3576 J1.3576 F60.0
N0360 X-17.6300 Y32.9000 I0.0000 J-5.1000
N0370 X-17.6300 Y30.1847 I1.3576 J-1.3576
N0380 (Operation: Inside Offset, LCD_durch, T50: Mill/router, 4 mm diameter, 2 mm Deep)
N0390 (Zweischneider)
N0400 G00 Z11.0000
N0410 X-34.3200 Y68.5800
N0420 Z0.5000
N0430 G01 Z-2.000 F30
N0440 G03 X-32.4000 Y70.5000 Z-2.0000 I0.0000 J1.9200 F60.0
N0450 G01 X-43.4000 Z-2.000 F60
N0460 Y14.5000
N0470 X-32.4000
N0480 Y70.5000
N0490 G03 X-34.3200 Y68.5800 Z-2.0000 I0.0000 J-1.9200 F60.0
N0500 (Operation: Inside Offset, LCD_Absatz, T50: Mill/router, 4 mm diameter, 0.6 mm Deep)
N0510 (Zweischneider)
N0520 G00 Z11.0000
N0530 X-31.9200 Y72.0800
N0540 Z0.5000
N0550 G01 Z-0.600 F30
N0560 G03 X-30.0000 Y74.0000 Z-0.6000 I0.0000 J1.9200 F60.0
N0570 G01 X-29.4142 Y74.5858 Z-0.600 F60
N0580 X-30.0000 Y74.0000
N0590 X-45.8000
N0600 X-46.3858 Y74.5858
N0610 X-45.8000 Y74.0000
N0620 Y11.0000
N0630 X-46.3858 Y10.4142
N0640 X-45.8000 Y11.0000
N0650 X-30.0000
N0660 X-29.4142 Y10.4142
N0670 X-30.0000 Y11.0000
N0680 Y74.0000
N0690 G03 X-31.9200 Y72.0800 Z-0.6000 I0.0000 J-1.9200 F60.0
N0700 G00 Z30.0000
N0710 M09 (Coolant off)
N0720 M05
N0730 M05 M30
