N0000 (Filename: Frontplatte_Rueck.tap)
N0010 (Post processor: Mach3.scpost)
N0020 (Date:29.12.2012 Time:16:50:03)
N0030 G21 (Units: Metric)
N0040 G40 G90 G91.1
N0050 F1
N0060 (Part: Frontplatte_Rueck)
N0070 (Operation: Inside Offset, Taster, T54: Mill/router, 3 mm diameter, 2 mm Deep)
N0080 (Zweischneider)
N0090 S10000 (Mill/router, 3 mm diameter)
N0100 T54 M06  G43 H54
N0110 G00 Z11.0000
N0120 M07 (Mist coolant on)
N0130 S10000 M03
N0140 X-17.5000 Y54.0347
N0150 Z0.5000
N0160 G01 Z-2.000 F20
N0170 G03 X-17.5000 Y56.7500 Z-2.0000 I-1.3576 J1.3576 F80.0
N0180 X-17.5000 Y56.7500 I0.0000 J-4.3500
N0190 X-17.5000 Y54.0347 I1.3576 J-1.3576
N0200 (Operation: Inside Offset, Kontakt_Absatz, T54: Mill/router, 3 mm diameter, 0.6 mm Deep)
N0210 (Zweischneider)
N0220 G00 Z11.0000
N0230 X-17.6300 Y31.1647
N0240 Z0.5000
N0250 G01 Z-0.600 F20
N0260 G03 X-17.6300 Y33.8800 Z-0.6000 I-1.3576 J1.3576 F80.0
N0270 X-17.6300 Y33.8800 I0.0000 J-6.0800
N0280 X-17.6300 Y31.1647 I1.3576 J-1.3576
N0290 (Operation: Inside Offset, Kontakt_durch, T54: Mill/router, 3 mm diameter, 2 mm Deep)
N0300 (Zweischneider)
N0310 G00 Z11.0000
N0320 Y30.6847
N0330 Z0.5000
N0340 G01 Z-2.000 F20
N0350 G03 X-17.6300 Y33.4000 Z-2.0000 I-1.3576 J1.3576 F80.0
N0360 X-17.6300 Y33.4000 I0.0000 J-5.6000
N0370 X-17.6300 Y30.6847 I1.3576 J-1.3576
N0380 (Operation: Inside Offset, LCD_durch, T54: Mill/router, 3 mm diameter, 2 mm Deep)
N0390 (Zweischneider)
N0400 G00 Z11.0000
N0410 X-33.8200 Y69.0800
N0420 Z0.5000
N0430 G01 Z-2.000 F20
N0440 G03 X-31.9000 Y71.0000 Z-2.0000 I0.0000 J1.9200 F80.0
N0450 G01 X-43.9000 Z-2.000 F80
N0460 Y14.0000
N0470 X-31.9000
N0480 Y71.0000
N0490 G03 X-33.8200 Y69.0800 Z-2.0000 I0.0000 J-1.9200 F80.0
N0500 (Operation: Inside Offset, LCD_Absatz, T54: Mill/router, 3 mm diameter, 0.6 mm Deep)
N0510 (Zweischneider)
N0520 G00 Z11.0000
N0530 X-31.4200 Y72.5800
N0540 Z0.5000
N0550 G01 Z-0.600 F20
N0560 G03 X-29.5000 Y74.5000 Z-0.6000 I0.0000 J1.9200 F80.0
N0570 G01 X-29.0607 Y74.9393 Z-0.600 F80
N0580 X-29.5000 Y74.5000
N0590 X-46.3000
N0600 X-46.7393 Y74.9393
N0610 X-46.3000 Y74.5000
N0620 Y10.5000
N0630 X-46.7393 Y10.0607
N0640 X-46.3000 Y10.5000
N0650 X-29.5000
N0660 X-29.0607 Y10.0607
N0670 X-29.5000 Y10.5000
N0680 Y74.5000
N0690 G03 X-31.4200 Y72.5800 Z-0.6000 I0.0000 J-1.9200 F80.0
N0700 (Operation: No Offset, LCD_durch, T54: Mill/router, 3 mm diameter, 0.6 mm Deep)
N0710 (Zweischneider)
N0720 G00 Z11.0000
N0730 X-32.3200 Y70.5800
N0740 Z0.5000
N0750 G01 Z-0.600 F20
N0760 G03 X-30.4000 Y72.5000 Z-0.6000 I0.0000 J1.9200 F80.0
N0770 G01 X-45.4000 Z-0.600 F80
N0780 X-45.8393 Y72.9393
N0790 X-45.4000 Y72.5000
N0800 Y12.5000
N0810 X-45.8393 Y12.0607
N0820 X-45.4000 Y12.5000
N0830 X-30.4000
N0840 X-29.9607 Y12.0607
N0850 X-30.4000 Y12.5000
N0860 Y72.5000
N0870 X-29.9607 Y72.9393
N0880 X-30.4000 Y72.5000
N0890 G03 X-32.3200 Y70.5800 Z-0.6000 I0.0000 J-1.9200 F80.0
N0900 G00 Z30.0000
N0910 M09 (Coolant off)
N0920 M05
N0930 M05 M30
