N0000 (Filename: Seitenplatte_Vor.tap)
N0010 (Post processor: Mach3.scpost)
N0020 (Date:30.12.2012 Time:10:26:53)
N0030 G21 (Units: Metric)
N0040 G40 G90 G91.1
N0050 F1
N0060 (Part: Seitenplatte_Vor)
N0070 (Operation: Inside Offset, 0, T53: Mill/router, 1.6 mm diameter, 5 mm Deep)
N0080 (Zweischneider)
N0090 S10000 (Mill/router, 1.6 mm diameter)
N0100 T53 M06  G43 H53
N0110 G00 Z11.0000
N0120 M07 (Mist coolant on)
N0130 S10000 M03
N0140 X42.1600 Y9.9100
N0150 Z0.5000
N0160 G01 Z-5.000 F10
N0170 G03 X42.8000 Y9.2700 Z-5.0000 I0.6400 J0.0000 F50.0
N0180 G01 Y10.8700 Z-5.000 F50
N0190 X36.2000
N0200 Y9.2700
N0210 X42.8000
N0220 G03 X42.1600 Y9.9100 Z-5.0000 I-0.6400 J0.0000 F50.0
N0230 G00 Z11.0000
N0240 X42.3100 Y6.1600
N0250 Z0.5000
N0260 G01 Z-5.000 F10
N0270 G03 X42.9500 Y6.8000 Z-5.0000 I0.0000 J0.6400 F50.0
N0280 G01 X36.0500 Z-5.000 F50
N0290 Y3.6000
N0300 X42.9500
N0310 Y6.8000
N0320 G03 X42.3100 Y6.1600 Z-5.0000 I0.0000 J-0.6400 F50.0
N0330 G00 Z30.0000
N0340 M09 (Coolant off)
N0350 M05
N0360 M05 M30
